packages/kaspersky-hexa-ui-icons/src/iconsSVGs/24/Code.svg

<svg width="24" height="24" viewBox="0 0 24 24" fill="none" xmlns="http://www.w3.org/2000/svg">
<path d="M14.9615 5.27473C15.1132 4.7437 14.8058 4.19021 14.2747 4.03849C13.7437 3.88677 13.1902 4.19426 13.0385 4.72529L9.03848 18.7253C8.88675 19.2563 9.19424 19.8098 9.72528 19.9615C10.2563 20.1133 10.8098 19.8058 10.9615 19.2747L14.9615 5.27473Z" fill="black"/>
<path d="M7.70711 7.29291C8.09763 7.68343 8.09763 8.3166 7.70711 8.70712L4.41421 12L7.70711 15.2929C8.09763 15.6834 8.09763 16.3166 7.70711 16.7071C7.31658 17.0976 6.68342 17.0976 6.29289 16.7071L2.29289 12.7071C1.90237 12.3166 1.90237 11.6834 2.29289 11.2929L6.29289 7.29291C6.68342 6.90238 7.31658 6.90238 7.70711 7.29291Z" fill="black"/>
<path d="M16.2929 7.29291C15.9024 7.68343 15.9024 8.3166 16.2929 8.70712L19.5858 12L16.2929 15.2929C15.9024 15.6834 15.9024 16.3166 16.2929 16.7071C16.6834 17.0976 17.3166 17.0976 17.7071 16.7071L21.7071 12.7071C22.0976 12.3166 22.0976 11.6834 21.7071 11.2929L17.7071 7.29291C17.3166 6.90238 16.6834 6.90238 16.2929 7.29291Z" fill="black"/>
</svg>

<svg xmlns="http://www.w3.org/2000/svg" width="24" height="24" fill="none" viewBox="0 0 24 24"><path fill="#000" fill-rule="evenodd" d="M14.9615 5.2747c.1517-.531-.1557-1.0845-.6868-1.2362s-1.0845.1558-1.2362.6868l-4 14c-.1517.531.1557 1.0845.6868 1.2362.531.1518 1.0845-.1557 1.2362-.6868zm1.3314 3.4324c-.3905-.3905-.3905-1.0237 0-1.4142s1.0237-.3905 1.4142 0l4 4c.3905.3905.3905 1.0237 0 1.4142l-4 4c-.3905.3905-1.0237.3905-1.4142 0s-.3905-1.0237 0-1.4142L19.5858 12zM7.7071 7.293c.3905.3905.3905 1.0237 0 1.4142L4.4142 12l3.2929 3.2929c.3905.3905.3905 1.0237 0 1.4142s-1.0237.3905-1.4142 0l-4-4c-.3905-.3905-.3905-1.0237 0-1.4142l4-4c.3905-.3905 1.0237-.3905 1.4142 0"/></svg>
